X:61
T:Dairy Maid THO4.061, The
M:6/8
L:1/8
Z:vmp. Peter Dunk 2010/11.from a transcription by Fynn Titford-Mock 2007
B:Thompson's Compleat Collection of 200 Favourite Country Dances Volume IV.
Q:3/8=100
K:Eb
EGB BGE|BGE cde|BGE BGE|DEF F3|\
EGB BGE|BGE cde|{e/}dcB FB=A|B3-B3:|
|:BcB fdB|c2 d eBG|edc BAG|FGE DCB,|\
C2 A B,2 G|A,2 F G,2 A|{A/}GFE B,ED|E3-E3:|
